src-theme/src/assets/icons/options.svg

<svg width="34" height="34" viewBox="0 0 34 34" fill="none" xmlns="http://www.w3.org/2000/svg">
<g clip-path="url(#clip0_3227_140)">
<mask id="mask0_3227_140" style="mask-type:luminance" maskUnits="userSpaceOnUse" x="0" y="0" width="34" height="34">
<path d="M34 0H0V34H34V0Z" fill="white"/>
</mask>
<g mask="url(#mask0_3227_140)">
<path d="M32.135 13.308L29.472 12.969C29.2549 12.3002 28.9854 11.6495 28.666 11.023L30.311 8.905C30.6312 8.49853 30.7905 7.98843 30.7586 7.472C30.7267 6.95557 30.5058 6.46896 30.138 6.105L27.906 3.87C27.5416 3.49914 27.0533 3.27572 26.5344 3.24251C26.0156 3.20929 25.5027 3.36863 25.094 3.69L22.979 5.335C22.352 5.01537 21.7006 4.74586 21.031 4.529L20.693 1.87C20.6314 1.35486 20.3832 0.880144 19.9953 0.535581C19.6075 0.191017 19.1068 0.000485005 18.588 0L15.414 0C14.8958 0.000366653 14.3957 0.190338 14.0079 0.534084C13.6201 0.877829 13.3715 1.35159 13.309 1.866L12.971 4.529C12.3012 4.74524 11.6498 5.01477 11.023 5.335L8.90601 3.69C8.49937 3.37026 7.98936 3.21121 7.47305 3.24311C6.95675 3.27501 6.47019 3.49564 6.10601 3.863L3.87101 6.093C3.49988 6.45743 3.27628 6.946 3.24307 7.46508C3.20985 7.98416 3.36935 8.49724 3.69101 8.906L5.33601 11.022C5.01606 11.6482 4.74654 12.2989 4.53001 12.968L1.87101 13.307C1.3557 13.3686 0.880842 13.617 0.536256 14.005C0.19167 14.3931 0.00124765 14.894 0.00100708 15.413L0.00100708 18.586C0.00137373 19.1042 0.191345 19.6043 0.535091 19.9921C0.878836 20.3799 1.35259 20.6285 1.86701 20.691L4.53001 21.03C4.74715 21.6988 5.01665 22.3495 5.33601 22.976L3.69101 25.095C3.37085 25.5015 3.21153 26.0116 3.24343 26.528C3.27534 27.0444 3.49625 27.531 3.86401 27.895L6.09501 30.13C6.45976 30.5004 6.94823 30.7233 7.46701 30.7561C7.98579 30.789 8.49847 30.6294 8.90701 30.308L11.023 28.663C11.649 28.9835 12.2997 29.2531 12.969 29.469L13.308 32.127C13.369 32.6429 13.617 33.1184 14.0051 33.4636C14.3933 33.8088 14.8946 33.9997 15.414 34H18.587C19.1052 33.9996 19.6054 33.8097 19.9931 33.4659C20.3809 33.1222 20.6295 32.6484 20.692 32.134L21.031 29.471C21.7002 29.2539 22.3512 28.9844 22.978 28.665L25.096 30.31C25.5025 30.6302 26.0126 30.7895 26.529 30.7576C27.0454 30.7257 27.532 30.5048 27.896 30.137L30.127 27.906C30.4983 27.5418 30.722 27.0534 30.7552 26.5344C30.7884 26.0155 30.6288 25.5025 30.307 25.094L28.662 22.978C28.9826 22.3517 29.2521 21.7006 29.468 21.031L32.126 20.692C32.642 20.6315 33.118 20.3838 33.4636 19.9958C33.8091 19.6079 34.0004 19.1066 34.001 18.587V15.413C34.0013 14.8949 33.8119 14.3947 33.4684 14.0068C33.125 13.6189 32.6513 13.3703 32.137 13.308H32.135ZM17.001 24.083C15.6001 24.083 14.2307 23.6676 13.0659 22.8893C11.9011 22.111 10.9933 21.0048 10.4572 19.7105C9.92107 18.4163 9.78081 16.9921 10.0541 15.6182C10.3274 14.2442 11.002 12.9821 11.9926 11.9916C12.9831 11.001 14.2452 10.3264 15.6192 10.0531C16.9931 9.7798 18.4173 9.92007 19.7116 10.4562C21.0058 10.9923 22.112 11.9001 22.8903 13.0649C23.6686 14.2297 24.084 15.5991 24.084 17C24.0819 18.8779 23.335 20.6782 22.0071 22.0061C20.6792 23.334 18.8789 24.0809 17.001 24.083Z" fill="currentColor"/>
</g>
</g>
<defs>
<clipPath id="clip0_3227_140">
<rect width="34" height="34" fill="white"/>
</clipPath>
</defs>
</svg>

<svg xmlns="http://www.w3.org/2000/svg" xmlns:xlink="http://www.w3.org/1999/xlink" width="34" height="34" viewBox="0 0 34 34">
  <defs>
    <clipPath id="clip-path">
      <rect id="Rectangle_7" data-name="Rectangle 7" width="34" height="34" transform="translate(38 28.377)" fill="#fff"/>
    </clipPath>
  </defs>
  <g id="Mask_Group_6" data-name="Mask Group 6" transform="translate(-38 -28.377)" clip-path="url(#clip-path)">
    <path id="settings" d="M32.134,13.308l-2.663-.339a13.388,13.388,0,0,0-.806-1.946L30.31,8.905a2.106,2.106,0,0,0-.173-2.8L27.905,3.87a2.112,2.112,0,0,0-2.812-.18L22.978,5.335a13.34,13.34,0,0,0-1.948-.806L20.692,1.87A2.122,2.122,0,0,0,18.587,0H15.413a2.122,2.122,0,0,0-2.105,1.866L12.97,4.529a13.185,13.185,0,0,0-1.948.806L8.905,3.69a2.108,2.108,0,0,0-2.8.173L3.87,6.093a2.112,2.112,0,0,0-.18,2.813l1.645,2.116a13.232,13.232,0,0,0-.806,1.946l-2.659.339A2.122,2.122,0,0,0,0,15.413v3.173a2.122,2.122,0,0,0,1.866,2.105l2.663.339a13.387,13.387,0,0,0,.806,1.946L3.69,25.095a2.106,2.106,0,0,0,.173,2.8L6.094,30.13a2.113,2.113,0,0,0,2.812.178l2.116-1.645a13.079,13.079,0,0,0,1.946.806l.339,2.658A2.122,2.122,0,0,0,15.413,34h3.173a2.122,2.122,0,0,0,2.105-1.866l.339-2.663a13.388,13.388,0,0,0,1.947-.806l2.118,1.645a2.106,2.106,0,0,0,2.8-.173l2.231-2.231a2.11,2.11,0,0,0,.18-2.812l-1.645-2.116a13.079,13.079,0,0,0,.806-1.947l2.658-.339A2.122,2.122,0,0,0,34,18.587V15.413a2.119,2.119,0,0,0-1.864-2.105ZM17,24.083A7.083,7.083,0,1,1,24.083,17,7.091,7.091,0,0,1,17,24.083Z" transform="translate(38.001 28.377)" fill="currentColor"/>
  </g>
</svg>
